X:1
T: Kindness for ever mair
P:A very old tune
R:Reel
Q: 232
K:D
M:4/4
L:1/8
|:g|f3e d2 de1/2f1/2|fe dB e4|d3B A2 Bc1/2d1/2|AF EF D3g|
f3e d2 de1/2f1/2|fe dB AB de|fd ec dB AF|B4 E3:|
|:z|E3F B2 B2|B2 AF B4|E3F A2 dB|AF DF D4|
E3F B2 B2|B2 AF B2 de|fd ec dB AF|B4 E3:|
